X: 331
T: Bilmem Şu Feleğin...
C: Muzaffer Sarısözen
O: Turkey
F: http://compmusic.upf.edu/node/140
N: yeni-cargah--turku--sofyan--bilmem_su--
N: makam= yeni-cargah
N: form= turku
N: usul= sofyan = 4/4
M: 4/4
L: 1/16
K: C    
Q: 1/4=84
%%MIDI tuningsystem comma53
c2cd ede2 ded2 ede2  | c2ce d2dc B2B2 c2c2  | 
w:  Bil mem  *  şu  *  fe le *  *  ğin   |  ben *  *  de  ne *  si  *  var    | 
c2cd ede2 ded2 d2{g}e2  | c2c2 e2dc B2B2 cBc2  | 
w:  Her  git *  ti *  ğim  yer *  *  de   |  yâr  *  is ter  *  ben *  den    | 
c2cd ede2 ded2 ede2  | c2ce d2dc B2B2 c2c2  | 
w:  Bil mem  *  şu  *  fe le *  *  ğin   |  ben *  *  de  ne *  si  *  var    | 
c2cd ede2 ded2 d2{g}e2  | c2c2 e2dc B2B2 cBc2  | 
w:  Her  git *  ti *  ğim  yer *  *  de   |  yâr  *  is ter  *  ben *  den    | 
g^fga g{a}fe{=f}d dcd2 e2de  | c2ce d2dc B2B2 c2c2  | 
w:  San *  ki  *  be *  *  nim  *  *  mor  *  *  sün  |  bül *  *  lü  ba *  ğım  *  var    | 
c2cd ede2 ded2 d2{g}e2  | c2c2 e2dc B2B2 c2c2  | \
w:  Zem he *  ri  *  a yın *  da  ba *  lım   |  gül  *  is ter  *  ben *  den    | 
gaa{_b}g f{g}ede dcd2 e2de  | 
w:  San *  ki  *  *  be *  *  nim  *  mor  *  *  sün  | 
c2ce d2dc B2B2 c2c2  | c2cd ede2 ded2 ede2  | 
w:  bül *  *  lü  ba *  ğım  *  var    |  Zem he *  ri  *  a yın *  da  ba *  lım   | 
c2c2 e2dc B2B2 c2c2  | c2cd ede2 ded2 ede2  | 
w:  gül  *  is ter  *  ben *  den    |  Bil mem  *  şu  *  fe le *  *  ğin   | 
c2ce d2dc B2B2 c2c2  | c2cd ede2 ded2 d2{g}e2  | 
w:  ben *  *  de  ne *  si  *  var    |  Her  git *  ti *  ğim  yer *  *  de   | 
c2c2 e2dc B2B2 cBc2  | c2cd ede2 ded2 ede2  | 
w:  yâr  *  is ter  *  ben *  den    |  Bil mem  *  şu  *  fe le *  *  ğin   | 
c2ce d2dc B2B2 c2c2  | c2cd ede2 ded2 d2{g}e2  | 
w:  ben *  *  de  ne *  si  *  var    |  Her  git *  ti *  ğim  yer *  *  de   | 
c2c2 e2dc B2B2 cBc2  | g^fga g{a}fe{=f}d dcd2 e2de  | 
w:  yâr  *  is ter  *  ben *  den    |  San *  ki  *  be *  *  nim  *  *  mor  *  *  sün  | 
c2ce d2dc B2B2 c2c2  | c2cd ede2 ded2 d2{g}e2  | 
w:  bül *  *  lü  ba *  ğım  *  var    |  Zem he *  ri  *  a yın *  da  ba *  lım   | 
c2c2 e2dc B2B2 c2c2  | gaa{_b}g f{g}ede dcd2 e2de  | 
w:  gül  *  is ter  *  ben *  den    |  San *  ki  *  *  be *  *  nim  *  mor  *  *  sün  | 
c2ce d2dc B2B2 c2c2  | c2cd ede2 ded2 ede2  | 
w:  bül *  *  lü  ba *  ğım  *  var    |  Zem he *  ri  *  a yın *  da  ba *  lım   | 
c2c2 e2dc B2B2 c2c2  | |


